svgs/sharp-light/cloud-binary.svg

<svg xmlns="http://www.w3.org/2000/svg" viewBox="0 0 640 512"><!--! Font Awesome Pro 6.6.0 by @fontawesome - https://fontawesome.com License - https://fontawesome.com/license (Commercial License) Copyright 2024 Fonticons, Inc. --><path d="M544 241.1l0-9.1c0-57.4-46.6-104-104-104c-13.4 0-26.2 2.5-37.9 7.1l-24.3 9.5-14.2-22C340.8 87.3 301.1 64 256 64c-70.7 0-128 57.3-128 128l0 8.2 0 22.6-21.3 7.5C63.1 245.8 32 287.3 32 336l0 112 112 0 368 0 96 0 0-96c0-35.5-19.2-66.5-48-83.2l-16-9.2 0-18.5zM0 336c0-62.7 40.1-116 96-135.8l0-8.2c0-88.4 71.6-160 160-160c56.4 0 106 29.2 134.5 73.3c15.3-6 32-9.3 49.5-9.3c75.1 0 136 60.9 136 136l0 9.1c38.3 22.1 64 63.5 64 110.9l0 96 0 32-32 0-96 0-368 0L32 480 0 480l0-32L0 336zM176 176l16 0 64 0 16 0 0 16 0 64 0 16-16 0-64 0-16 0 0-16 0-64 0-16zm32 32l0 32 32 0 0-32-32 0zm80-32l16 0 16 0 16 0 0 16 0 64 0 16-32 0 0-16 0-48-16 0 0-32zm96 0l64 0 16 0 0 16 0 64 0 16-16 0-64 0-16 0 0-16 0-64 0-16 16 0zm16 64l32 0 0-32-32 0 0 32zM192 304l16 0 16 0 16 0 0 16 0 64 0 16-32 0 0-16 0-48-16 0 0-32zm80 0l16 0 64 0 16 0 0 16 0 64 0 16-16 0-64 0-16 0 0-16 0-64 0-16zm32 32l0 32 32 0 0-32-32 0zm96-32l16 0 16 0 0 16 0 64 0 16-32 0 0-16 0-48-16 0 0-32 16 0z"/></svg>

<svg xmlns="http://www.w3.org/2000/svg" viewBox="0 0 640 512"><!--! Font Awesome Pro 6.5.2 by @fontawesome - https://fontawesome.com License - https://fontawesome.com/license (Commercial License) Copyright 2024 Fonticons, Inc. --><path d="M544 241.1V232c0-57.4-46.6-104-104-104c-13.4 0-26.2 2.5-37.9 7.1l-24.3 9.5-14.2-22C340.8 87.3 301.1 64 256 64c-70.7 0-128 57.3-128 128v8.2 22.6l-21.3 7.5C63.1 245.8 32 287.3 32 336V448H144 512h96V352c0-35.5-19.2-66.5-48-83.2l-16-9.2V241.1zM0 336c0-62.7 40.1-116 96-135.8V192c0-88.4 71.6-160 160-160c56.4 0 106 29.2 134.5 73.3c15.3-6 32-9.3 49.5-9.3c75.1 0 136 60.9 136 136v9.1c38.3 22.1 64 63.5 64 110.9v96 32H608 512 144 32 0V448 336zM176 176h16 64 16v16 64 16H256 192 176V256 192 176zm32 32v32h32V208H208zm80-32h16 16 16v16 64 16H304V256 208H288V176zm96 0h64 16v16 64 16H448 384 368V256 192 176h16zm16 64h32V208H400v32zM192 304h16 16 16v16 64 16H208V384 336H192V304zm80 0h16 64 16v16 64 16H352 288 272V384 320 304zm32 32v32h32V336H304zm96-32h16 16v16 64 16H400V384 336H384V304h16z"/></svg>
